X:1
T:Minuet from L'Arlesiénne Suite No. 2
T:Georges Bizet
T:for Baroque Flute (A=415)
%%score 1 { 2 | ( 3 4 ) }
L:1/8
Q:1/4=70
M:3/4
K:Db
V:1 treble transpose=-1 nm="Flute" snm="Fl."
V:2 treble nm="Harp" snm="Hrp."
V:3 bass 
V:4 bass 
V:1
[K:D] z6 | z6 | f2 (!>!f>e d/e/f/g/ | afd'a f') z | e2 (e>f e/d/c/B/ | Acec a) z | %6
 (.d2 .d2) (e/d/c/d/ | efga b) z | (.e2 .e2){/f} (e/^d/e/f/ | =d4) z2 | f2 (f>e d/e/f/g/ | %11
 a/f/a/f/ d'/a/d'/a/ f') z | e2 (e>f e/d/c/B/ | A/E/A/c/ e/c/e/c/ a) z | (.d2 .d2) (e/d/c/d/ | %15
 e/f/g/a/ b2- b/a/g/f/ | e)(.e.e.e){/f} (e/^d/e/f/ | =d4) z2 | (ef g3 e) | (fg a3 f) | (ga b3 c') | %21
 (ad'bafd | e)(e/f/ g3 e | f)(f/g/ a3 f | ^g)(g/a/ b3 g | c'b_ba^g=g | f)(.f.f.f) (g/f/e/f/) | %27
 (g/a/g/a/ b2- b/a/g/f/ | e)(.e.e.e){/f} (e/^d/e/f/ | =d3) z z2 | (e/f/)(e/f/) (g3 e) | %31
 (f/g/)(f/g/) (a3 f) | (g/a/)(g/a/) (b3 c') | (a/f'/)(f'/d'/) (d'/b/)(b/a/) (a/f/)(f/d/) | %34
 (e/f/)(e/f/) (g/f/)(g/f/) (.a/.g/.f/.e/) | (f/g/)(f/g/) (a/^g/)(a/g/) (.b/.a/.g/.f/) | %36
 (^g/a/)(g/a/) (b/a/)(b/a/) (.c'/.b/.a/.g/) | (c'/^b/)(b/=b/) (b/_b/)(b/a/) (a/^g/)(g/=g/) | %38
 (g/f/)(.f/.f/ .f/.f/.f/.f/) (.g/.f/.e/.f/) | (g/a/)(b/^a/) (c'/b/)(d'/c'/) (.b/.=a/.g/.f/) | %40
 (.e/.e/.e/.e/ .e/.e/.e/.e/){/f} (e/^d/e/f/ | =d3) z z2 |: !>!g2 !>!g2 !>!a2 | %43
 !>!b>a g/f/e/d/ =c/B/A/G/ | !>!d2 (d/^c/d/f/) (e/g/)(f/a/) | (g/f/g/b/) (g/f/g/b/) g z :: %46
 !>!e2 !>!e2 !>!f2 | g/a/b/a/ g/a/g/f/ e/g/f/e/ | d2 (!>!df) (!>!eg) | %49
 f/g/a/g/ f/e/d/c/ d/^d/e/f/ | !>!g2 !>!g2 !>!a2 | !>!b>a g/f/e/d/ =c/B/A/G/ | %52
 !>!d2 (d/c/)d/f/ (e/g/)(f/a/) |1 (g/f/g/b/) (g/f/g/b/) g z :|2 (g/f/)(g/b/) g z z2 || %55
 f2 (f>e d/e/f/g/ | a/f/a/f/ d'/a/d'/a/ f') z | e2 (e>f e/d/c/B/ | A/E/A/c/ e/c/e/c/ a) z | %59
 (.d2 .d2) (e/d/c/d/ | e/f/g/a/ b2- b/a/g/f/ | e)(.e.e.e){/f} (e/^d/e/f/ | =d3) z z2 | %63
 (ef (g3 e)) | (fg (a3 f)) | (ga b3 c') | (ad'bafd | e)((e/f/) g3 e | f)((f/g/) a3 f | %69
 ^g)((g/a/) b3 g | c'b_ba^g=g | f)(.f.f.f) ((g/f/e/f/)) | ((g/a/)(g/a/) b2- (b/a/g/f/) | %73
 e)(.e.e.e){/f} ((e/^d/e/f/ | =d3)) z z2 | f2 (f>e d/e/f/g/ | a/f/a/f/ d'/a/d'/a/ f') z | %77
 e2 (e>f e/d/c/B/ | A/E/A/c/ e/c/e/c/ a) z | d2 d2 (e/d/c/d/ | e/f/g/a/ b2- b/a/g/f/ | %81
 e)(!tenuto!e!tenuto!e!tenuto!e){/f} (e/^d/e/f/) | (=d4 f2 | a4 f2 | !fermata!d'4-) d' z |] %85
V:2
 z .A,.D.A,.F.A, | z .A,.D.A,.F.A, | z .A,.D.A,.E.A, | z .A,.F.A,.D.A, | z .A,.C.A,.D.A, | %5
 z .A,.E.A,.C.A, | z .F,.B,.F,.D.F, | z .E,.B,.E,.D.E, | z .G,.C.A,.G.C | z .A,.D.A,.F.A, | %10
 z .A,.D.A,.E.A, | z .A,.F.A,.D.A, | z .A,.C.A,.D.A, | z .A,.E.A,.C.A, | z .F,.B,.F,.D.F, | %15
 z .E,.B,.E,.D.E, | z .G,.C.A,.G.C | z .A,.D.A,.F.A, | CA,EA,CA, | DA,FA,DA, | EA,GA,EA, | %21
 (FBGFDB,) | CA,EA,CA, | DA,FA,DA, | =EC=GCEC | [A,C]2 z2 z2 | _CDF_cFD | B,DEBED | z CGAGC | %29
 [F,D]A,DFAD | CA,EA,CA, | DA,FA,DA, | EA,GA,EA, | ([FA][df][Bd][GB][FA][DF]) | [CE]AEA[A,C]A | %35
 FAFADA | =Ec=Gc[CE]c | [FA] z z2 z2 | DF_cdcF | DGdBGE | CAGACA | FDA,F, z z |: %42
 !arpeggio!!>![GBdg]2 !arpeggio!!>![GBdg]2 !arpeggio!!>![_cdfa]2 | %43
 !arpeggio!!>![Bdgb]2 B/A/G/F/ E/D/_C/B,/ | !>![DF]2 [DF]2 [DG][FA] | %45
 !>![GB]2 !>![GBd]2 !>![Bdg] z :: !arpeggio!!>![EGBe]2 !arpeggio!!>![EGBe]2 !arpeggio!!>![FB=df]2 | %47
 !arpeggio!!>![Beg]2 B/_c/B/A/ G/B/A/G/ | !>![FA]2 !arpeggio!!>![FAd]2 !arpeggio!!>![A=c]2 | %49
 !>![FAd]_c/B/ A/G/F/E/ D/_C/B,/A,/ | %50
 !arpeggio!!>![GBdg]2 !arpeggio!!>![GBdg]2 !arpeggio!!>![Adfa]2 | %51
 !arpeggio!!>![Bdgb]2 B/A/G/F/ E/D/_C/B,/ | !>![_CD]2 !>![CDF]2 [DG][FA] |1 %53
 !>![GB]2 !>![GBd]2 !>![Bdg] z :|2 [GB]2 (dBAG) || (F3 D G>E) | (A3 dAF) | (E3 G F>A) | %58
 (A=G _G2) z2 | (F,>D) D2 (CD) | (B,2 B) z z2 | (A4 C2 | _D3) z z2 | z2 (EF G2) | z2 (FG A2) | %65
 z2 (GABc) | A2 d3 F | (F2 E2) z G | (G2 FB A-A/) z/ | z2 c3 c | c6 | d4 d>d | (e3 d cB) | %73
 (cBA=G _G>E) | D2- D z z2 | z .A,.D.A,.E.A, | z .A,.F.A,.D.A, | z A,CA,DA, | z A,EA,CA, | %79
 z F,DB, F z | z E,DB, E z | [CG]2 [CG]2 [CG]2 | !arpeggio![A,DF]AFDA,F, | z6 | %84
 !arpeggio!!fermata![FAd]4- [FAd] z |] %85
V:3
 [D,,D,] z z2 z2 | [D,,D,] z z2 z2 | [D,,D,] z z2 z2 | [D,,D,] z z2 z2 | [A,,,A,,] z z2 z2 | %5
 [A,,,A,,] z z2 z2 | [B,,,B,,] z z2 z2 | [G,,,G,,] z z2 z2 | [A,,,A,,] z z2 z2 | [D,,D,] z z2 z2 | %10
 [D,,D,] z z2 z2 | [D,,D,] z z2 z2 | [A,,,A,,] z z2 z2 | [A,,,A,,] z z2 z2 | [B,,,B,,] z z2 z2 | %15
 [G,,,G,,] z z2 z2 | [A,,,A,,] z z2 z2 | [D,,D,] z z2 z2 | [A,,,A,,] z z2 z2 | [A,,,A,,] z z2 z2 | %20
 [A,,,A,,] z z2 z2 | [A,,,A,,] z z2 z2 | [A,,,A,,] z z2 z2 | [D,,D,] z z2 z2 | [C,,C,] z z2 z2 | %25
 [F,,F,] z z2 z2 | [D,,D,] z z2 z2 | [G,,G,] z z2 z2 | [A,,A,] z z2 z2 | [D,,D,] z z2 z2 | %30
 [A,,,A,,] z z2 z2 | [A,,,A,,] z z2 z2 | [A,,,A,,] z z2 z2 | [A,,,A,,] z z2 z2 | %34
 [A,,,A,,] z z2 z2 | [D,,D,] z z2 z2 | [C,,C,] z z2 z2 | [F,,F,] z z2 z2 | [D,,D,] z z2 z2 | %39
 [G,,G,] z z2 z2 | [A,,,A,,] z z2 [A,,,A,,] z | [D,D,] z z2 D, z |: %42
 !arpeggio![G,,B,,D,G,]2 !arpeggio![B,,D,G,B,]2 !arpeggio![D,F,A,D]2 | %43
 !arpeggio!!>![G,,B,,D,G,]2 z2 z2 | !arpeggio!!>![D,A,_C]2 !arpeggio![D,A,C]2 [D,B,D][D,A,C] | %45
 !>![G,B,]2 !>![G,,B,,D,G,]2 !>!G,, z :: !arpeggio![B,,E,G,B,]2 B,2 !arpeggio![B,,=D,F,B,]2 | %47
 !arpeggio![E,,G,,B,,E,]2 z2 z2 | %48
 !arpeggio!!>![A,,D,F,]2 !arpeggio!!>![A,D]2 !arpeggio![A,,C,E,A,]2 | %49
 !arpeggio![D,,F,,A,,D,] z z2 z2 | %50
 !arpeggio!!>![G,,B,,D,G,]2 !arpeggio!!>![B,,D,G,B,]2 !arpeggio!!>![D,F,A,D]2 | %51
 !arpeggio![G,,B,,D,G,]2 z2 z2 | [D,A,]2 [D,A,]2 [D,B,][D,A,] |1 [G,B,]2 [G,,B,,D,G,]2 G,, z :|2 %54
 [G,,G,]2 z2 z2 || .D,.A,.F,.A,.E.A, | .D,.A,.F.A,.D.A, | .A,,.A,.C.A,.D.A, | .A,,.A,.E.A,.C.A, | %59
 B,,F,B,F,D,F, | G,,E,B,E,DE, | A,,G,CA,G,A, | D,A,DA,FA, |{/A,,} C,A,,E,A,,C,A,, | %64
{/A,,,} D,A,,F,A,,D,A,, |{/A,,,} E,A,,G,A,,E,A,, | [A,,F,A,][DF][B,D][G,B,][F,A,][D,F,] | %67
 [A,,C,E,]A,E,A,[A,,C,]A, | [D,,D,]A,F,A,D,A, | [C,=E,]C=G,C[C,E,]C | [F,A,] z z2 z2 | %71
{/D,,} .D,.F,._C.D.C.F, |{/G,,} .D,.G,.D.B,.G,.E, | [A,,C,]A,G,A,[A,,C,]A, | %74
{/D,,} F,D,A,,F,,D,, z | [D,,D,] z z2 z2 | [D,,D,] z z2 z2 | [A,,,A,,] z z2 z2 | %78
 [A,,,A,,] z z2 z2 | [B,,,B,,] z z2 z2 | [G,,,G,,] z z2 z2 | A,,2 A,,2 A,,2 | D, z z2 z2 | %83
 D,A,F,D,A,,F,, | !fermata!D,,4- D,, z |] %85
V:4
 x6 | x6 | x6 | x6 | x6 | x6 | x6 | x6 | x6 | x6 | x6 | x6 | x6 | x6 | x6 | x6 | x6 | x6 | x6 | %19
 x6 | x6 | x6 | x6 | x6 | x6 | x6 | x6 | x6 | x6 | x6 | x6 | x6 | x6 | x6 | x6 | x6 | x6 | x6 | %38
 x6 | x6 | x6 | D,, z z2 D,, z |: x6 | x6 | x6 | x6 :: x6 | x6 | x6 | x6 | x6 | x6 | x6 |1 x6 :|2 %54
 x6 || x6 | x6 | x6 | x6 | x6 | x6 | x6 | x6 | x6 | x6 | x6 | x6 | x6 | x6 | x6 | x6 | x6 | x6 | %73
 x6 | x6 | x6 | x6 | x6 | x6 | x6 | x6 | x6 | x6 | x6 | x6 |] %85

